credit-card-check.svg

<svg fill="currentColor" viewBox="0 0 24 24"><path d="M20 4H4a2 2 0 0 0-2 2v12a2 2 0 0 0 2 2h9.09c-.06-.33-.09-.66-.09-1 0-3.31 2.69-6 6-6 1.06 0 2.09.28 3 .81V6c0-1.11-.89-2-2-2m0 7H4V8h16m-2.25 14L15 19l1.16-1.16 1.59 1.59 3.59-3.59 1.16 1.41z"/></svg>

<svg  viewBox="0 0 24 24" fill="currentColor"><path  d="M20 4H4C2.9 4 2 4.89 2 6V18C2 19.11 2.9 20 4 20H13.09C13.03 19.67 13 19.34 13 19C13 15.69 15.69 13 19 13C20.06 13 21.09 13.28 22 13.81V6C22 4.89 21.11 4 20 4M20 11H4V8H20M17.75 22L15 19L16.16 17.84L17.75 19.43L21.34 15.84L22.5 17.25L17.75 22"/></svg>
